X: 3
T: The Old Woman Tossed Up in a Blanket
N: O'Neill's - 771, modified by Debby Knight
N: Ornament (~) is a mordant
M: 6/8
R: Jig
K: A
E |\
"A"AcB Bce | fec "E7"B2 A | "A"AcB cAB | "F#m"cAF "D"~F2 E |\
"A"AcB Bce | fec "E"B2 A | "A"AcB cAB | "E7"cAA "A"A2 :|
|: a |\
"D"~f3 fea | fea fec | "A (C#m)"ecf ecf | ecA "E7"B2 e |\
"A"aff "E"gee | "A"fec "E7"B2 A | "A"AcB cAB | "E7"cAA "A"A2 :|

